X:1
T:Dudġckġ
T:Dudġckġ
T:Leopold Mozart
C:Leopold Mozart
%%score { 1 | 2 | 3 }
L:1/8
Q:1/4=93
M:2/4
K:C
V:1 treble nm="Varhany" snm="Varh."
V:2 treble 
V:3 bass 
V:1
 c2 G2 | EE/F/ G2 | c/B/c/d/ c/B/c/d/ | c/B/c/d/ c2 | cc/d/ BB/c/ | AA/B/ G2 | FF/G/ EE/F/ | %7
 DD/E/ C2 | C/D/E/F/ GG | C/D/E/F/ G2 | C/D/E/F/ GG | C/D/E/F/ G2 | AA/c/ BB/d/ | c2 c2 :| %14
[K:G] _ec/G/ ec/G/ | _ec/G/ e2 | fc/A/ fc/A/ | fc/A/ f2 | gd/B/ gd/B/ | gd/B/ g2 | g2 d2 | %21
 BB/c/ d2 | g/f/g/a/ g/f/g/a/ | g/f/g/a/ g2 | gg/a/ ff/g/ | ee/f/ d2 | cc/d/ BB/c/ | AA/B/ G2 | %28
 G/A/B/c/ dd | G/A/B/c/ d2 | G/A/B/c/ dd | G/A/B/c/ d2 | ee/g/ ff/a/ | g2 !fermata!g2 |] %34
V:2
 [CE]2 [CE]2 | [CE]2 [CE]2 | [CE]2 [CE]2 | [CE]2 [CE]2 |[K:bass] C2 B,2 | A,2 G,2 | F,2 E,2 | %7
 D,2 C,2 | [C,G,]2 [C,G,]2 | [C,G,]2 [C,G,]2 | [C,G,]2 [C,G,]2 | [C,G,]2 [C,G,]2 | F,2 G,2 | %13
[K:treble] [CE]4 :|[K:G] [C_E]2 [CE]2 | [C_E]2 [CE]2 |[K:bass] [A,C]2 [A,C]2 | [A,C]2 [A,C]2 | %18
 [G,B,]2 [G,B,]2 | [G,B,]2 [G,B,]2 | [G,B,]2 [G,B,]2 | [G,B,]2 [G,B,]2 | [G,B,]2 [G,B,]2 | %23
 [G,B,]2 [G,B,]2 | G,2 F,2 | E,2 D,2 | C,2 B,,2 | A,,2 G,,2 | [G,,D,]2 [G,,D,]2 | %29
 [G,,D,]2 [G,,D,]2 | [G,,D,]2 [G,,D,]2 | [G,,D,]2 [G,,D,]2 | E,2 F,2 | [B,,D,G,]2 [B,,D,G,]2 |] %34
V:3
 C,4 | C,4 | C,4 | C,4 | C,2 B,,2 | A,,2 G,,2 | F,,2 E,,2 | D,,2 C,,2 | C,4 | C,4 | C,4 | C,4 | %12
 F,,2 G,,2 | C,4 :|[K:G] _E,4 | _E,4 | A,,4 | A,,4 | G,,4 | G,,4 | G,,4 | G,,4 | G,,4 | G,,4 | %24
 G,2 F,2 | E,2 D,2 | C,2 B,,2 | A,,2 G,,2 | G,,4 | G,,4 | G,,4 | G,,4 | E,,2 F,,2 | G,,2 G,,2 |] %34

